X: 289
T: Liberty
B: canberra pickers and fiddlers
B: tunes
M:4/4
L:1/8
R: reel
Q: 1/4=100
K:D
V:1 
  de\ 
| "D" f2A2 f2A2 | "D" fefg f2ef | "G" g2B2     g2B2 | "G" gfga g2fe | 
  "D" f2A2 f2A2 | "D" fefg f2ef | "G" gfed "A7" cABc | "D" d2f2 d2  :|
|:FG\ 
| "D" A2AB AGFE | "D" DFAd f2d2 | "D" A2AB     AGF2 | "A7" E2EE E2FG |
  "D" A2AB AGFE | "D" DFAd f2d2 | "G" gfed "A7" cABc | "D" d2f2 d2  :|
% abcbook-tune_id 63da59340e4eae53937ec14b
% abcbook-tune_composer_id 
% abcbook-link-0 https://www.youtube.com/watch?v=RSLtI0H_-7U
% abcbook-link-end-at-0 134
% abcbook-boost 0
% abcbook-difficulty 0
% abcbook-tags canberra pickers and fiddlers,old time tunes,© free
% abcbook-tablature 
% abcbook-transpose 
% abcbook-tuning ADAE
% abcbook-lastupdated 1730321756738
% abcbook-src-url https://tunebook.net/scrape/tunes.abc
% abcbook-soundfonts 
% abcbook-repeats 1
%%gchordfont "itim-music,Itim" 20

